assets/azureserverfarm/original.svg

<svg height="18" viewBox="0 0 18 18" width="18" xmlns="http://www.w3.org/2000/svg" xmlns:xlink="http://www.w3.org/1999/xlink"><linearGradient id="a" gradientUnits="userSpaceOnUse" x1="5.759" x2="5.759" y1=".5" y2="16.523"><stop offset="0" stop-color="#b3b2b3"/><stop offset=".375" stop-color="#afaeaf"/><stop offset=".763" stop-color="#a2a2a2"/><stop offset="1" stop-color="#979797"/></linearGradient><linearGradient id="b" gradientUnits="userSpaceOnUse" x1="11.676" x2="11.676" y1="17.5" y2="8.901"><stop offset="0" stop-color="#0078d4"/><stop offset=".156" stop-color="#1380da"/><stop offset=".528" stop-color="#3c91e5"/><stop offset=".822" stop-color="#559cec"/><stop offset="1" stop-color="#5ea0ef"/></linearGradient><path d="m10.96 15.98a.574.574 0 0 1 -.6.543h-9.2a.574.574 0 0 1 -.6-.543v-14.937a.574.574 0 0 1 .598-.543h9.2a.574.574 0 0 1 .6.543z" fill="url(#a)"/><path d="m2.086 7.35a1.193 1.193 0 0 1 1.131-1.25h5.177a1.193 1.193 0 0 1 1.131 1.25 1.193 1.193 0 0 1 -1.131 1.25h-5.177a1.193 1.193 0 0 1 -1.131-1.25m-0-3.701a1.193 1.193 0 0 1 1.131-1.249h5.177a1.193 1.193 0 0 1 1.131 1.249 1.193 1.193 0 0 1 -1.131 1.246h-5.177a1.193 1.193 0 0 1 -1.131-1.246" fill="#003067"/><circle cx="3.542" cy="3.649" fill="#50e6ff" r=".836"/><circle cx="3.542" cy="7.35" fill="#50e6ff" r=".836"/><path d="m14.849 10.484-3.173-1.584-3.288 1.584-1.2 2.35v4.381a.286.286 0 0 0 .286.285h8.405a.286.286 0 0 0 .286-.285v-4.381z" fill="url(#b)"/><path d="m6.481 14.1a.438.438 0 0 1 -.4-.62l1.41-3.08a.44.44 0 0 1 .191-.2l3.854-2.073a.44.44 0 0 1 .42 0l3.721 2.073a.43.43 0 0 1 .178.187l1.545 3.078a.437.437 0 1 1 -.782.392l-1.485-2.957-3.394-1.89-3.513 1.89-1.347 2.943a.44.44 0 0 1 -.398.257" fill="#50e6ff"/><g fill="#005ba1"><rect height="1.871" rx=".285" width="1.787" x="10.742" y="11.41"/><path d="m11.635 15.94 1.728-1.157a.3.3 0 0 0 -.16-.049h-3.136a.3.3 0 0 0 -.16.049zm1.853 1.24v-2.127l-1.589 1.064zm-2.117-1.063-1.589-1.064v2.127zm2.104 1.383h.013v-.021zm-3.693-.021v.021h.014zm.051.021h3.604l-1.802-1.206z"/></g></svg>

<svg xmlns="http://www.w3.org/2000/svg" width="18" height="18" viewBox="0 0 18 18"><defs><linearGradient id="b50cf5f1-c6e1-4f11-b8cc-ac5883e58b03" x1="5.759" x2="5.759" y1=".5" y2="16.523" gradientUnits="userSpaceOnUse"><stop offset="0" stop-color="#b3b2b3"/><stop offset=".375" stop-color="#afaeaf"/><stop offset=".763" stop-color="#a2a2a2"/><stop offset="1" stop-color="#979797"/></linearGradient><linearGradient id="e6a4aefe-099f-4820-80ab-37d0a9752ce4" x1="11.676" x2="11.676" y1="17.5" y2="8.901" gradientUnits="userSpaceOnUse"><stop offset="0" stop-color="#0078d4"/><stop offset=".156" stop-color="#1380da"/><stop offset=".528" stop-color="#3c91e5"/><stop offset=".822" stop-color="#559cec"/><stop offset="1" stop-color="#5ea0ef"/></linearGradient></defs><title>MsPortalFx.base.images-57</title><g id="abb598c4-c86a-468d-9987-3d53df2d9db9"><path fill="url(#b50cf5f1-c6e1-4f11-b8cc-ac5883e58b03)" d="M10.96 15.98a.574.574 0 0 1-.6.543h-9.2a.574.574 0 0 1-.6-.543V1.043A.574.574 0 0 1 1.158.5h9.2a.574.574 0 0 1 .6.543Z"/><path fill="#003067" d="M2.086 7.35A1.193 1.193 0 0 1 3.217 6.1h5.177a1.193 1.193 0 0 1 1.131 1.25A1.193 1.193 0 0 1 8.394 8.6H3.217a1.193 1.193 0 0 1-1.131-1.25M2.086 3.649A1.193 1.193 0 0 1 3.217 2.4h5.177a1.193 1.193 0 0 1 1.131 1.249 1.193 1.193 0 0 1-1.131 1.246H3.217a1.193 1.193 0 0 1-1.131-1.246"/><circle cx="3.542" cy="3.649" r=".836" fill="#50e6ff"/><circle cx="3.542" cy="7.35" r=".836" fill="#50e6ff"/><path fill="url(#e6a4aefe-099f-4820-80ab-37d0a9752ce4)" d="M14.849 10.484 11.676 8.9l-3.288 1.584-1.2 2.35v4.381a.286.286 0 0 0 .286.285h8.405a.286.286 0 0 0 .286-.285v-4.381Z"/><path fill="#50e6ff" d="M6.481 14.1a.438.438 0 0 1-.4-.62l1.41-3.08a.44.44 0 0 1 .191-.2l3.854-2.073a.44.44 0 0 1 .42 0l3.721 2.073a.43.43 0 0 1 .178.187l1.545 3.078a.437.437 0 1 1-.782.392L15.133 10.9l-3.394-1.89-3.513 1.89-1.347 2.943a.44.44 0 0 1-.398.257"/><rect width="1.787" height="1.871" x="10.742" y="11.41" fill="#005ba1" rx=".285"/><g fill="#005ba1"><path d="m11.635 15.94 1.728-1.157a.3.3 0 0 0-.16-.049h-3.136a.3.3 0 0 0-.16.049ZM13.488 17.18v-2.127l-1.589 1.064zM11.371 16.117l-1.589-1.064v2.127zM13.475 17.5h.013v-.021zM9.782 17.479v.021h.014zM9.833 17.5h3.604l-1.802-1.206z"/></g></g></svg>
